X: 2084
T: At Work On The Land
R: jig
M: 6/8
K: Dmajor
|:D>dD c>DB|D>AB A>GF|E>FD E3|G<AF G>FE|
D>dD c>DB|D>AB A>GF|G3 G>AB|1 A2 F G>FE:|2 A2 F G>FG||
|:A>BF A3|A>BF E>FD|D>BB B>AG|B>BB B>dc|
A>BA d>Ad|e>Ae f2 f|g>gg g>ef|g>ed c>BA:|

